src/assets/icons/bolt.svg

<svg width="14" height="14" viewBox="0 0 14 14" fill="none" xmlns="http://www.w3.org/2000/svg">
<g id="bolt">
<g clip-path="url(#clip0_156_4589)">
<path id="Vector" fill-rule="evenodd" clip-rule="evenodd" d="M6.89972 2.73653L4.99505 5.67027L3.89397 7.50891H6.92995C7.07768 7.50891 7.24384 7.56053 7.37448 7.69112C7.50514 7.82174 7.55684 7.98794 7.55684 8.13578V8.17646L7.10031 11.2635L9.00498 8.32972L10.106 6.49114H7.07008C6.92211 6.49114 6.75593 6.43934 6.62538 6.30873C6.49486 6.17814 6.44319 6.01203 6.44319 5.86422V5.82354L6.89972 2.73653ZM7.88798 0.029549C8.11399 0.102452 8.32385 0.319848 8.32385 0.627883V0.668563L7.62637 5.38486H10.9494C11.1988 5.38486 11.3937 5.52692 11.4935 5.69793C11.5887 5.86095 11.6286 6.11186 11.4864 6.33928L9.94377 8.91531L6.82757 13.7151C6.64992 13.9933 6.33408 14.0421 6.11205 13.9704C5.88604 13.8975 5.67618 13.6802 5.67618 13.3721V13.3314L6.37365 8.61518H3.05062C2.80108 8.61518 2.60614 8.47294 2.50643 8.30198C2.41141 8.13906 2.37145 7.88817 2.51358 7.66073L4.05625 5.08469L7.17244 0.284876C7.35009 0.0066772 7.66595 -0.0420699 7.88798 0.029549Z" fill="black"/>
</g>
</g>
<defs>
<clipPath id="clip0_156_4589">
<rect width="14" height="14" fill="white"/>
</clipPath>
</defs>
</svg>

<svg xmlns="http://www.w3.org/2000/svg" fill="none" viewBox="0 0 14 14"><g clip-path="url(#a)"><path fill="#000" fill-rule="evenodd" d="M6.9 2.737 4.995 5.67 3.894 7.51H6.93a.627.627 0 0 1 .627.627v.04L7.1 11.264 9.005 8.33l1.101-1.839H7.07a.627.627 0 0 1-.627-.627v-.04zM7.888.03c.226.072.436.29.436.598v.04l-.698 4.717h3.323a.63.63 0 0 1 .537.954L9.944 8.915l-3.116 4.8a.627.627 0 0 1-1.151-.343v-.04l.697-4.717H3.05a.63.63 0 0 1-.537-.954l1.542-2.576 3.116-4.8A.62.62 0 0 1 7.888.03" clip-rule="evenodd"/></g><defs><clipPath id="a"><path fill="#fff" d="M0 0h14v14H0z"/></clipPath></defs></svg>
